src/lib/packages/icons/src/assets/filled/sliders-horizontal-alt.svg

<svg width="24" height="24" viewBox="0 0 24 24" fill="none" xmlns="http://www.w3.org/2000/svg">
<path d="M9.5 7C9.5 8.93 7.93 10.5 6 10.5C4.07 10.5 2.5 8.93 2.5 7C2.5 5.07 4.07 3.5 6 3.5C7.93 3.5 9.5 5.07 9.5 7ZM18 13.5C16.07 13.5 14.5 15.07 14.5 17C14.5 18.93 16.07 20.5 18 20.5C19.93 20.5 21.5 18.93 21.5 17C21.5 15.07 19.93 13.5 18 13.5ZM21.75 7C21.75 6.586 21.414 6.25 21 6.25H15C14.586 6.25 14.25 6.586 14.25 7C14.25 7.414 14.586 7.75 15 7.75H21C21.414 7.75 21.75 7.414 21.75 7ZM9.75 17C9.75 16.586 9.414 16.25 9 16.25H3C2.586 16.25 2.25 16.586 2.25 17C2.25 17.414 2.586 17.75 3 17.75H9C9.414 17.75 9.75 17.414 9.75 17Z" fill="currentColor"/>
</svg>

<svg xmlns="http://www.w3.org/2000/svg" width="24" height="24" fill="none"><path fill="currentColor" d="M9.5 7c0 1.93-1.57 3.5-3.5 3.5S2.5 8.93 2.5 7 4.07 3.5 6 3.5 9.5 5.07 9.5 7Zm8.5 6.5c-1.93 0-3.5 1.57-3.5 3.5s1.57 3.5 3.5 3.5 3.5-1.57 3.5-3.5-1.57-3.5-3.5-3.5ZM21.75 7a.75.75 0 0 0-.75-.75h-6a.75.75 0 0 0 0 1.5h6a.75.75 0 0 0 .75-.75Zm-12 10a.75.75 0 0 0-.75-.75H3a.75.75 0 0 0 0 1.5h6a.75.75 0 0 0 .75-.75Z"/></svg>
